medi/img/visually-impaired.svg

<svg width="26" height="22" viewBox="0 0 26 22" fill="none" xmlns="http://www.w3.org/2000/svg">
<path d="M13.0739 6.31027C12.4337 6.31027 11.8223 6.43713 11.2396 6.69085C10.6569 6.94457 10.1563 7.28013 9.73769 7.69755C9.31913 8.11496 8.98264 8.61421 8.72822 9.19531C8.4738 9.77641 8.34659 10.3862 8.34659 11.0246C8.34659 11.6629 8.4738 12.2768 8.72822 12.8661C8.98264 13.4554 9.31913 13.9587 9.73769 14.3761C10.1563 14.7935 10.6569 15.125 11.2396 15.3705C11.8223 15.6161 12.4337 15.7388 13.0739 15.7388C13.9438 15.7388 14.7399 15.5301 15.4621 15.1127C16.1843 14.6953 16.7547 14.1265 17.1733 13.4063C17.5919 12.686 17.8011 11.8921 17.8011 11.0246C17.8011 9.7314 17.3415 8.6224 16.4223 7.69755C15.5032 6.77269 14.387 6.31027 13.0739 6.31027ZM13.0739 14.1674C12.5158 14.1674 11.9905 14.0242 11.4981 13.7377C11.0057 13.4513 10.6158 13.0666 10.3286 12.5837C10.0414 12.1008 9.89773 11.5729 9.89773 11C9.89773 10.5744 9.9798 10.1693 10.1439 9.7846C10.3081 9.39993 10.5338 9.06436 10.821 8.7779C11.1083 8.49144 11.4448 8.26637 11.8305 8.10268C12.2162 7.93899 12.6225 7.85714 13.0492 7.85714C13.9192 7.85714 14.6619 8.16406 15.2775 8.7779C15.893 9.39174 16.2008 10.1324 16.2008 11C16.2008 11.8676 15.8971 12.6124 15.2898 13.2344C14.6825 13.8564 13.9438 14.1674 13.0739 14.1674ZM25.6061 10.8281C25.6061 10.8118 25.602 10.7913 25.5938 10.7667C25.5855 10.7422 25.5814 10.7217 25.5814 10.7054C25.5814 10.689 25.5773 10.6767 25.5691 10.6685L25.5568 10.6563V10.6317L25.5322 10.5826C24.416 8.01265 22.7254 5.99516 20.4602 4.53013C18.1951 3.0651 15.7247 2.33259 13.0492 2.33259C11.2929 2.33259 9.60227 2.65179 7.97727 3.29018C6.35227 3.92857 4.87911 4.87388 3.55777 6.12612C2.23643 7.37835 1.19823 8.86384 0.443184 10.5826V10.644L0.418562 10.6808V10.7545L0.393941 10.8036C0.377527 10.9018 0.36932 10.9754 0.36932 11.0246C0.36932 11.0573 0.373423 11.09 0.381631 11.1228C0.389838 11.1555 0.393941 11.1882 0.393941 11.221C0.393941 11.2374 0.402148 11.2619 0.418562 11.2946V11.3438L0.430873 11.3806L0.443184 11.3929V11.4665C1.57576 14.0365 3.27873 16.0458 5.55209 17.4944C7.82544 18.9431 10.3081 19.6674 13 19.6674C14.7563 19.6674 16.4429 19.3523 18.0597 18.7221C19.6765 18.0919 21.1414 17.1548 22.4545 15.9107C23.7677 14.6667 24.7936 13.1853 25.5322 11.4665C25.5486 11.4665 25.5568 11.4583 25.5568 11.442V11.4051L25.5691 11.3806L25.5814 11.3683V11.2946L25.6061 11.2455C25.6225 11.1473 25.6307 11.0737 25.6307 11.0246C25.6307 10.9918 25.6266 10.9591 25.6184 10.9263C25.6102 10.8936 25.6061 10.8609 25.6061 10.8281ZM13 18.096C10.6692 18.096 8.51073 17.4862 6.52462 16.2667C4.53851 15.0472 3.02841 13.2999 1.99432 11.0246C3.02841 8.74926 4.54672 6.99368 6.54924 5.75781C8.55177 4.52195 10.7184 3.90402 13.0492 3.90402C14.5593 3.90402 16.0079 4.16592 17.3949 4.68973C18.7819 5.21354 20.0581 6.01972 21.2235 7.10826C22.3889 8.1968 23.3163 9.50223 24.0057 11.0246C22.9716 13.2999 21.4615 15.0472 19.4754 16.2667C17.4893 17.4862 15.3308 18.096 13 18.096Z" fill="white"/>
</svg>

<svg xmlns="http://www.w3.org/2000/svg" width="26" height="22" fill="none"><path fill="#fff" d="M13.074 6.31q-.96 0-1.834.38a4.8 4.8 0 0 0-1.502 1.008 4.8 4.8 0 0 0-1.01 1.497 4.6 4.6 0 0 0 0 3.67q.382.885 1.01 1.511.627.626 1.502.995a4.7 4.7 0 0 0 1.834.368 4.69 4.69 0 0 0 4.1-2.333q.627-1.08.627-2.381 0-1.941-1.379-3.327-1.378-1.388-3.348-1.388m0 7.857a3.1 3.1 0 0 1-1.576-.43 3.2 3.2 0 0 1-1.17-1.153A3.04 3.04 0 0 1 9.899 11q0-.638.246-1.215t.677-1.007a3.17 3.17 0 0 1 2.228-.92q1.305 0 2.229.92.923.92.923 2.222 0 1.301-.911 2.234a2.98 2.98 0 0 1-2.216.933m12.532-3.339a.2.2 0 0 0-.012-.061.2.2 0 0 1-.013-.062q0-.024-.012-.037l-.012-.012v-.024l-.025-.05Q23.858 6.728 20.46 4.53t-7.41-2.197q-2.635 0-5.073.957-2.437.958-4.42 2.836a13.6 13.6 0 0 0-3.114 4.457v.061l-.024.037v.074l-.025.049a1.5 1.5 0 0 0-.025.22q0 .05.013.099a.4.4 0 0 1 .012.098q0 .023.025.074v.049l.012.037.012.012v.073q1.7 3.856 5.11 6.028A13.6 13.6 0 0 0 13 19.667a13.8 13.8 0 0 0 5.06-.945q2.425-.945 4.395-2.811a13.3 13.3 0 0 0 3.077-4.444q.025 0 .025-.025v-.037l.012-.024.012-.013v-.073l.025-.05q.024-.147.025-.22a.4.4 0 0 0-.013-.099.4.4 0 0 1-.012-.098M13 18.096q-3.496 0-6.475-1.83-2.98-1.828-4.53-5.241 1.55-3.413 4.554-5.267t6.5-1.854q2.265 0 4.346.786t3.829 2.418 2.782 3.917q-1.551 3.412-4.53 5.242A12.15 12.15 0 0 1 13 18.096"/></svg>
